X:1
T:Riches of Grace
T:Riches of Grace
T:Edmund Simon Lorenz
T:Edmund Simon Lorenz, 1886
T:Public Domain Courtesy of the Cyber Hymnal™
T:Public Domain Courtesy of the Cyber Hymnal™
C:Edmund Simon Lorenz
Z:Public Domain
Z:Courtesy of the Cyber Hymnal™
%%score ( 1 2 ) ( 3 4 )
L:1/8
Q:1/4=100
M:12/8
K:F
V:1 treble 
V:2 treble 
V:3 bass 
V:4 bass 
V:1
 C[CF][CG] | [FA]2 [FA] [FA]2 [FA] [FA]3 [Ac][GB][FA] | [EG]8 z C[CE][EG] | %3
w: 1.~Rich- es of|earth I may not see, God may pre-|vent; Rich- es of|
w: 2.~I may not|win fair hon- or’s crown, God may pre-|vent; Heav- en- ly|
w: 3.~Earth will not|bring me hours of peace, Sin will pre-|vent; I have a|
 [GB]2 [GB] [GB]2 [GB] [GB]3 [Bd][Ac][GB] | [FA]8 z F[EG][FA] | %5
w: grace are of- fered me, I am con-|tent. Wealth of the|
w: hon- ors are my own, I am con-|tent; Child- ren of|
w: peace that can- not cease, God hath it|sent. Sweet- ly the|
 [Ac]2 [Ac] [Ac]2 [Ac] [Ac]3 F[FA][Fc] | [Fd]2 [Fd] [Fd]2 [Fd] [Fd]3 [Ff][Fe][Fd] | %7
w: world must fade and fail, Earth- ly de-|lights grow taste- less, stale, I have the|
w: God and heirs of grace, Walk- ing in|light be- fore His face, Rest- ing in|
w: hours of life glide by, Harm- less its|tri- als past me fly, Strong in His|
 [Fc]2 [Fc] [Fc]2 [Fc] [Fc]3 [Ec][EB][EG] | F8 z ||"^Refrain" F[EG][_EA] | B8 [Bd] [df][ce][Bd] | %11
w: wealth that must a- vail— Rich- es of|grace.|Rich- es of|grace for- ev- er en-|
w: peace in His em- brace— Rich- es of|grace.|||
w: grace I all de- fy— Rich- es of|grace.|||
 [Ac]8 z F[EG][FA] | [EG]8 [FA] [Ec][GB][EG] | [FA]8 z F[EG][_EA] | [DB]8 [Bd] [df][ce][Bd] | %15
w: dure; Rich- es of|grace my safe- ty as-|sure; Rich- es of|grace are fade- less and|
w: ||||
w: ||||
 [Ac]8 z F[EG][FA] | [EG]8 z [Ec]"^riten."[EB][EG] | F8 z |] %18
w: pure; Rich- es of|grace, rich- es of|grace.|
w: |||
w: |||
V:2
 C x2 | x12 | x9 C x2 | x12 | x9 F x2 | x9 F x2 | x12 | x12 | F8 x || F x2 | (D6 F2) x4 | x9 F x2 | %12
 x12 | x9 F x2 | x12 | x9 F x2 | x12 | F8 x |] %18
V:3
 [F,A,][F,A,][F,B,] | [F,C]2 [F,C] [F,C]2 [F,C] [F,C]3 [F,C][F,C][F,C] | %2
w: ~ ~ ~|~ ~ ~ ~ ~ ~ ~ ~|
 [C,C]8 z [C,E,][C,G,][C,C] | [C,C]2 [C,C] [C,C]2 [C,C] [C,C]3 [C,C][C,C][C,C] | %4
w: ~ ~ ~ ~|~ ~ ~ ~ ~ ~ ~ ~|
 [F,C]8 z [F,A,][F,B,][F,C] | [F,C]2 [F,C] [F,C]2 [F,C] [F,C]3 [F,A,][F,C][F,A,] | %6
w: ~ ~ ~ ~|~ ~ ~ ~ ~ ~ ~ ~|
 B,2 B, B,2 B, B,3 [B,D][B,C]B, | [F,A,]2 [F,A,] [F,A,]2 [F,A,] [F,A,]3 [C,G,][C,G,][C,B,] | %8
w: ~ ~ ~ ~ ~ ~ ~ ~|~ ~ ~ ~ ~ ~ ~ ~|
 [F,A,]8 z || z3 | z3 B,B,B, [B,D]2 z4 | z2 [F,C] [F,F][F,C][F,C] [F,C]2 z4 | %12
w: ~||Rich- es of grace|for- ev- er en- dure;|
 z3 [C,C][C,C][C,C] [C,C]3 z3 | z2 [F,C] [F,C][F,C][F,C] [F,C]2 z4 | z3 B,B,B, [B,D]2 z4 | %15
w: Rich- es of grace|my safe- ty as- sure;|Rich- es of grace|
 z2 [F,C] [F,F][F,C][F,C] [F,C]2 z4 | z3 [C,C][C,C][C,C] [C,C]2 z [C,G,][C,G,][C,B,] | [F,A,]8 z |] %18
w: are fade- less and pure,|Rich- es of grace, rich- es of|grace.|
V:4
 x3 | x12 | x12 | x12 | x12 | x12 | B,2 B, B,2 B, B,3 B, x2 | x12 | x9 || x3 | x3 B,B,B, x6 | x12 | %12
 x12 | x12 | x3 B,B,B, x6 | x12 | x12 | x9 |] %18

